X: 41185
T: Tripping Up The Stairs
R: jig
M: 6/8
K: Dmajor
BA|:FAA GBB|FAd fed|cBc ABc|dfe dAG|
FAA GBB|FAd fed|cBc ABc|1 dfe d2A:|2 dfe d2c||
|:dBB fBB|fgf fed|cAA eAA|efe edc|
dBB fBB|fgf fed|cBc ABc|1 dfe d2c:|2 dfe d3||
|:dBB fBB|fgf fed|cAA eAA|a^ga edc|
dBB fBB|fgf fed|cBc ABc|1 dfe d2c:|2 dfe d3||

